X:1
T:Title
%%score { ( 1 3 4 ) | ( 2 5 ) }
L:1/8
Q:1/4=189
M:3/4
K:Db
V:1 treble nm="Grand Piano"
V:3 treble 
V:4 treble 
V:2 bass 
V:5 bass 
V:1
 F2 G2 =G2 | [FA]2 B2 d2 | [Gd]6 | [Gc]4 z2 | [CE]4 z2 | [EG]2 [Ac]2 [GB]2 | [FA]6- | [FA]4 z2 | %8
w: Chas.~H.~Gabriel * *||||||||
 [DF]2 [A,DEG]2 =G2 | [FA]4 z2 | [Bd]4 z2 | [Ac]4 z2 | [GB]4 z2 | z2 B,2 c2 | [EA-]6 | A2 z2 z2 | %16
w: ||||||||
 [Fd]4 [DFc]2 | [FB]4 [DFc]2 | F6 | F4 z2 | [FB]4 [DFA]2 | [_F=G]4 [D=FA]2 | D6- | %23
w: |||||||
 D4[K:treble] z2 | C2 [A,C]2 [A,CE]2 | A,2- [A,-G]2 [A,-E]2 | [A,-F]2 [A,-G]2 [A,A]2 | B2 A2 F2 | %28
w: |||||
 E2 =G2 B2 | [F=Gd]2 [Gc]2 [GB]2 | z6 | e6 | [Fd]4 [DFc]2 | [FB]4 [DFc]2 | A6 | A4 z2 | %36
w: ||||||||
 [FB]4 [DFA]2 | [_F=G]4 [D=FA]2 | D6- | D4[K:treble] z2 | C2 [A,C]2 [A,E]2 | A,2- [A,-G]2 [A,-E]2 | %42
w: ||||||
 [A,-F]2 [A,-G]2 [A,A]2 | [DGB]2 [EGc]2 [_F=Gd]2 | [Gd]4 [Gc]2 | [GB]4 c2 | [Fd]6- | [Fd]4 z2 |] %48
w: ||||||
V:2
 [D,D]2 [F,A,DE]2 _F2 | D,2 [F,A,DF]2 F2 | E,2 G,2 G,2 | A,,2 G,2 [G,A,C]2 | E,2 G,2 G,2 | %5
 A,,2 [G,A,C]2 [G,A,C]2 | D,2 F,2 B,2 | A,2 F,2 E,2 | D,2 F,2 _F2 | D,2 F,2 F2 | E,2 E,2 [E,A,C]2 | %11
 [E,,E,]2 [E,A,]2 [E,A,C]2 | [E,,E,]2 [E,=G,]2 [E,G,D]2 | [E,,E,]2 [E,=G,]2 [E,G,B,D]2 | %14
 C,2 B,,2 A,,2 | [G,,G,]2 [F,,F,]2 [E,,D,]2 | D,2 A,2 F,2 | D,2 A,2 F,2 | D,2 F,2 F,2 | %19
 z D z[K:treble] F z A | D,2 A,2 F,2 | D,2 A,2 F,2 | D,2 F,2 F,2 | D,2 F,2 [F,A,]2 | E,2 G,2 G,2 | %25
 A,,2 B,,2 C,2 | D,2 [E,C]2 [F,D]2 | D2- [F,D]2 [C,A,]2 | [E,D]2- [E,-B,D-]2 [E,=G,D]2 | z2 E2 D2 | %30
 [C,C]2 B,,2 A,,2 | [G,,G,]2 [F,,F,]2 z[K:treble] c | D,2 A,2 F,2 | D,2 A,2 F,2 | D,2 F,2 F,2 | %35
 z D z[K:treble] F z A | D,2 A,2 F,2 | D,2 A,2 F,2 | D,2 F,2 F,2 | D,2 F,2 [F,A,]2 | E,2 G,2 G,2 | %41
 A,,2 B,,2 C,2 | [D,D]2 [E,C]2 [F,D]2 | [G,,G,]2 [A,,A,]2 [=A,,=A,]2 | [A,,A,]4 z2 | [A,,A,]4 G2 | %46
 D,2 A,2 F,2 | D,4 z2 |] %48
V:3
 x6 | x6 | z2 [A,C]2 [A,C]2 | z2 [A,C]2 [Gc]2 | z2 A,2 [A,DF]2 | x6 | x6 | x6 | x6 | z2 [A,D]2 d2 | %10
 z2 [B,D]2 [Ac]2 | z2 C2 [ce]2 | z2 D2 [Fd]2 | [D=G]4 z2 | C2 B,2 A,2 | E2- [DEA]2 [CG]2 | x6 | %17
 x6 | A2- [A,DA-]2 [A,DA-]2 | A2- [A,DEA]2 .[A,DGA]2 | x6 | x6 | z2 A,2 A,2 | z2 A,2[K:treble] D2 | %24
 x6 | [CA]2 z2 z2 | x6 | x6 | x6 | x6 | [G-e]6 | G2 G4 | x6 | x6 | F2- [A,DF-]2 [A,DF-]2 | %35
 F2- [A,DEF]2 .[A,DGA]2 | x6 | x6 | z2 A,2 A,2 | z2 A,2[K:treble] D2 | x6 | [CA]2 z2 z2 | x6 | x6 | %44
 x6 | x6 | x6 | A,4 z2 |] %48
V:4
 x6 | x6 | x6 | x6 | x6 | x6 | x6 | x6 | x6 | x6 | x6 | x6 | x6 | x6 | x6 | C2 z2 z2 | x6 | x6 | %18
 x6 | x6 | x6 | x6 | x6 | x4[K:treble] x2 | x6 | x6 | x6 | x6 | x6 | x6 | c2- [B,c-]2 [A,c-]2 | %31
 c-[Ac-] c-[Ac-] [Bc]2 | x6 | x6 | x6 | x6 | x6 | x6 | x6 | x4[K:treble] x2 | x6 | x6 | x6 | x6 | %44
 x6 | x6 | x6 | x6 |] %48
V:5
 x6 | x6 | x6 | x6 | x6 | x6 | x6 | x6 | x6 | x6 | x6 | x6 | x6 | x6 | x6 | x6 | x6 | x6 | x6 | %19
 D,2 F,2[K:treble] F,2 | x6 | x6 | x6 | x6 | x6 | x6 | x6 | G,2 z2 z2 | =G,2 z2 z2 | E,6 | x6 | %31
 z2 z2 [E,,E,]2[K:treble] | x6 | x6 | x6 | D,2 F,2[K:treble] F,2 | x6 | x6 | x6 | x6 | x6 | x6 | %42
 x6 | x6 | x6 | x6 | x6 | x6 |] %48

